bs-navigator/img/icons/advant-02.svg

<svg width="40" height="41" viewBox="0 0 40 41" fill="none" xmlns="http://www.w3.org/2000/svg">
<path d="M6.25 20.5002V36.7502H20H33.75V34.7502C33.75 33.1877 33.5625 32.9377 33 33.5002C32.5 34.0002 28.8125 34.2502 20.5 34.2502H8.75V20.5002V6.75024H20H31.25V12.5627C31.25 17.6252 31.4375 18.5627 32.5 19.5627C33.75 20.6877 33.75 20.6252 33.75 12.5002V4.25024H20H6.25V20.5002Z" fill="#698157"/>
<path d="M13.125 11.4377C12.6875 11.9377 12.5 12.8752 12.625 13.5002C12.8125 14.1252 12.5625 15.1877 12.125 15.8127C11.625 16.4377 11.25 17.1877 11.25 17.5002C11.25 18.2502 13.375 18.1252 14.25 17.2502C14.8125 16.6877 15.1875 16.6877 15.75 17.2502C16.625 18.1252 18.75 18.2502 18.75 17.5002C18.75 17.1877 18.375 16.4377 17.875 15.8127C17.4375 15.1877 17.1875 14.1252 17.375 13.5002C17.6875 12.1252 16.5 10.5002 15 10.5002C14.375 10.5002 13.5625 10.9377 13.125 11.4377Z" fill="#698157"/>
<path d="M21.25 11.7502C21.25 12.8752 21.6875 13.0002 25 13.0002C28.3125 13.0002 28.75 12.8752 28.75 11.7502C28.75 10.6252 28.3125 10.5002 25 10.5002C21.6875 10.5002 21.25 10.6252 21.25 11.7502Z" fill="#698157"/>
<path d="M21.25 16.7502C21.25 17.8752 21.6875 18.0002 25 18.0002C28.3125 18.0002 28.75 17.8752 28.75 16.7502C28.75 15.6252 28.3125 15.5002 25 15.5002C21.6875 15.5002 21.25 15.6252 21.25 16.7502Z" fill="#698157"/>
<path d="M28.9375 21.5002C28.75 22.0002 29.1875 23.0627 30 24.0002L31.4375 25.5002H26.375C21.6875 25.5002 21.25 25.6252 21.25 26.7502C21.25 27.8752 21.6875 28.0002 26.375 28.0002H31.4375L30.0625 29.4377C29.25 30.3752 28.875 31.3127 29.125 31.9377C29.3125 32.5627 29.625 33.0002 29.75 33.0002C29.9375 33.0002 31.4375 31.5002 33.125 29.6877L36.1875 26.4377L33.25 23.4377C30.125 20.2502 29.5625 20.0002 28.9375 21.5002Z" fill="#698157"/>
<path d="M11.25 24.2502C11.25 25.3752 11.6875 25.5002 15 25.5002C18.3125 25.5002 18.75 25.3752 18.75 24.2502C18.75 23.1252 18.3125 23.0002 15 23.0002C11.6875 23.0002 11.25 23.1252 11.25 24.2502Z" fill="#698157"/>
<path d="M11.25 29.2502C11.25 30.3752 11.6875 30.5002 15 30.5002C18.3125 30.5002 18.75 30.3752 18.75 29.2502C18.75 28.1252 18.3125 28.0002 15 28.0002C11.6875 28.0002 11.25 28.1252 11.25 29.2502Z" fill="#698157"/>
</svg>

<svg width="40" height="41" fill="none" xmlns="http://www.w3.org/2000/svg"><path d="M6.25 20.5v16.25h27.5v-2c0-1.562-.188-1.812-.75-1.25-.5.5-4.188.75-12.5.75H8.75V6.75h22.5v5.813c0 5.062.188 6 1.25 7 1.25 1.125 1.25 1.062 1.25-7.063V4.25H6.25V20.5z" fill="#698157"/><path d="M13.125 11.438c-.438.5-.625 1.437-.5 2.062.188.625-.063 1.688-.5 2.313-.5.625-.875 1.375-.875 1.687 0 .75 2.125.625 3-.25.563-.562.938-.562 1.5 0 .875.875 3 1 3 .25 0-.312-.375-1.062-.875-1.687-.438-.625-.688-1.688-.5-2.313.313-1.375-.875-3-2.375-3-.625 0-1.438.438-1.875.938zm8.125.312c0 1.125.438 1.25 3.75 1.25 3.313 0 3.75-.125 3.75-1.25S28.312 10.5 25 10.5c-3.313 0-3.75.125-3.75 1.25zm0 5c0 1.125.438 1.25 3.75 1.25 3.313 0 3.75-.125 3.75-1.25S28.312 15.5 25 15.5c-3.313 0-3.75.125-3.75 1.25zm7.688 4.75c-.188.5.25 1.563 1.062 2.5l1.438 1.5h-5.063c-4.688 0-5.125.125-5.125 1.25S21.688 28 26.375 28h5.063l-1.375 1.438c-.813.937-1.188 1.875-.938 2.5.188.625.5 1.062.625 1.062.188 0 1.688-1.5 3.375-3.312l3.063-3.25-2.938-3C30.125 20.25 29.562 20 28.937 21.5zM11.25 24.25c0 1.125.438 1.25 3.75 1.25 3.313 0 3.75-.125 3.75-1.25S18.312 23 15 23c-3.313 0-3.75.125-3.75 1.25zm0 5c0 1.125.438 1.25 3.75 1.25 3.313 0 3.75-.125 3.75-1.25S18.312 28 15 28c-3.313 0-3.75.125-3.75 1.25z" fill="#698157"/></svg>
